X:1
T: Non-Stop (Version 2)
N:
C:Play 3 times as written
S:tune is adapted from  "Chelsea Reach"
A:
O:
R:
M:6/8
K:G
I:speed 150
%W:
% voice 1 (1 lines, 20 notes)
K:G
M:6/8
L:1/16
d2 |B2 A2 G2 A4 F2 G4 G2 G4 g2 e2 f2 g2 e2 f2 g2 a4 f2 d4 d2 |
%W:
% voice 1 (1 lines, 21 notes)
B2 c2 d2 B2 c2 d2 c2 d2 e2 e2 d2 c2 B2 A2 G2 A4 f2 g4 G2 G4 g2 |
%W:
% voice 1 (1 lines, 22 notes)
g2 a2 g2 e2 d2 e2 e2 f2 e2 d2 c2 B2 B2 c2 d2 d2 e2 ^c2 d4 d2 d4 d2 |
%W:
% voice 1 (1 lines, 22 notes)
B2 A2 B2 c2 B2 c2 A2 B2 c2 d2 c2 d2 e2 f2 g2 g2 a2 f2 g4 G2 G4 d2 |
%W:
% voice 1 (1 lines, 19 notes)
B2 A2 G2 A4 F2 G4 G2 G4 g2 e2 f2 g2 e2 f2 g2 a4 f2 d4 d2 |
%W:
% voice 1 (1 lines, 21 notes)
B2 c2 d2 B2 c2 d2 c2 d2 e2 e2 d2 c2 B2 A2 G2 A4 f2 g4 G2 G4 g2 |
%W:
% voice 1 (1 lines, 22 notes)
g2 a2 g2 e2 d2 e2 e2 f2 e2 d2 c2 B2 B2 c2 d2 d2 e2 ^c2 d4 d2 d4 d2 |
%W:
% voice 1 (1 lines, 21 notes)
B2 A2 B2 c2 B2 c2 A2 B2 c2 d2 c2 d2 e2 f2 g2 g2 a2 f2 g4 G2 G4 ||
